X:1
M:6/8
K:G
|:dBA cAF|GBG BAF|FDF AFD|dcd cAF|
d2A AFC|AFA cAF|BAd cBF|DFD DFF|
GFA AFD|DBG cBc|dcB cBA|cdc d2:|
|:DDED AFD|DFG AFF|FDD FED|dDG D2F|
DFD EFD|dfd d2d|ddB FGE|DED D2C F|
DDFD FEA|cdd cAG|(BAF BAF|1 FDD D2E:|2 FFG G2 E||
